X: 190
T: Ta'am Haman
C: Itzchak Eliyahu Navon 1950
O: Israel
I: Dance taught by Yo'av Ashriel
F: http://www.youtube.com/watch?v=2J8aWi0R5yo
M: 3/4
L: 1/4
Q: 1/4=200
K: C
  F2F    |F2E|G2G    |E2z   |D2D    |D2C    |E2D      |C3    |
|:"C"C2G |G2E|"F"F2A |"G7"G3|"C"C2D |"G7"E2D|"F"FE"G"D|"C"C3 :|
  "C"c2c |c2G|"Am"A2B|cBA   |"G7"G2F|"C"EDC |"F"FED   |"C"C3 |:
  "F" F2F|F2E|"G7"G2G|"C"E2z|"Dm"D2D|D2C    |"C"E2D   |"C"C3 :|
  "C"GFE |GFE|GFE    |E2z   |G3     |"F"A3  |"G"BAG   |"C"c3 |



